X:1
T: The Tweedale Club
C:Nathaniel Gow
R:Strathspey
Q: 128
K:C
M:4/4
L:1/16
|:c2|GE3 c3G A3G E2c2|GE3 c2G2 d2D2 D2c2|GE3 c3G A3B c2A2|G2e2 E2c2 D4 C2c2|
GE3 c3G A3G E2c2|GE3 c2G2 d2D2 D2c2|GE3 c3G A3B c2a2|g2c2 f2e2 d4 c2ef|
g2c2 g3e c2g2 e2g2|a2d2 a3f d3e f3a|g2c2 g2e2 c2g2 e2g2|((3f2a2f2) ((3e2g2e2) d4 c2ef|
g2c2 g3e c2g2 e2g2|a2d2 a3f d3e f3a|g2e2 a2g2 e2c2 d2B2|A2c2 E2c2 D4 C2:|
